X: 24
T:LES FLOTS DU SURAN
M:3/4
L:1/8
Q:190
C:trad. Bresse/Jura
R:valse
K:C
g2e2f2|g6|e2f2a2|g6|e2d2e2|f6|1 d2c2d2|e4c2:|2 d2c2B2|c4|!
|:cd|e2e2e2|e2dc Bc|d2d2d2|d2ed cd|e2e2e2|e2 dc Bc|d2e2d2|1 c4:|2 c6||
